X:1
T:Title
L:1/8
Q:1/4=90
M:6/8
K:A
V:1 treble nm="Church Organ, Staff"
V:1
 A2 A ABc | d2 f e2 c | A2 A ABF | G3 .G3 | z A2 AAB | cde f e2 | cBc def | e A2- A A2 |] %8
w: By~Henry~T.~Tiltman * * * *||||||||

